assets/elm/plain.svg

<svg viewBox="0 0 128 128" xmlns="http://www.w3.org/2000/svg"><path d="m64 60.74 25.65-25.65h-51.3zm-56.09-56.09 25.83 25.84h56.17l-25.84-25.84zm59.353 59.343 28.08-28.08 27.951 27.953-28.08 28.079zm56.087-6.573v-52.77h-52.77zm-62.61 6.58-56.09-56.09v112.19zm37.73 31.21 24.88 24.89v-49.77zm-34.47-27.95-56.09 56.09h112.18z" fill="#34495e"/></svg>

<svg xmlns="http://www.w3.org/2000/svg" viewBox="0 0 128 128"><path fill="#34495e" d="m64 60.74 25.65-25.65h-51.3zM7.91 4.65l25.83 25.84h56.17L64.07 4.65zm59.353 59.343 28.08-28.08 27.951 27.953-28.08 28.079zm56.087-6.573V4.65H70.58zM60.74 64 4.65 7.91V120.1zm37.73 31.21 24.88 24.89V70.33zM64 67.26 7.91 123.35h112.18z"/></svg>
